icons/svgs/location-pin-lock-solid.svg

<svg width="24" height="24" viewBox="0 0 24 24" fill="none" xmlns="http://www.w3.org/2000/svg">
<path d="M10.3984 21.5312C9.92969 22.1172 9.03125 22.1172 8.5625 21.5312C6.57031 18.9922 2 12.9375 2 9.5C2 5.35938 5.35938 2 9.5 2C13.2109 2 16.3359 4.73438 16.8828 8.32812C14.8125 8.67969 13.25 10.4766 13.25 12.625V13.6016C12.4688 14.0312 12 14.8516 12 15.75V19.4609C11.375 20.2812 10.8281 20.9844 10.3984 21.5312ZM9.5 7C8.60156 7 7.78125 7.50781 7.3125 8.25C6.88281 9.03125 6.88281 10.0078 7.3125 10.75C7.78125 11.5312 8.60156 12 9.5 12C10.3594 12 11.1797 11.5312 11.6484 10.75C12.0781 10.0078 12.0781 9.03125 11.6484 8.25C11.1797 7.50781 10.3594 7 9.5 7ZM17.625 11.375C16.9219 11.375 16.375 11.9609 16.375 12.625V14.5H18.875V12.625C18.875 11.9609 18.2891 11.375 17.625 11.375ZM14.5 12.625C14.5 10.9062 15.8672 9.5 17.625 9.5C19.3438 9.5 20.75 10.9062 20.75 12.625V14.5C21.4141 14.5 22 15.0859 22 15.75V20.75C22 21.4531 21.4141 22 20.75 22H14.5C13.7969 22 13.25 21.4531 13.25 20.75V15.75C13.25 15.0859 13.7969 14.5 14.5 14.5V12.625Z" fill="black"/>
</svg>

<svg xmlns="http://www.w3.org/2000/svg" width="24" height="24" fill="currentColor" class="icon-location-pin-lock-solid" viewBox="0 0 24 24">
  <mask id="a" width="20" height="20" x="2" y="2" maskUnits="userSpaceOnUse" style="mask-type:alpha">
    <path d="M10.398 21.531a1.178 1.178 0 0 1-1.835 0C6.57 18.992 2 12.938 2 9.5 2 5.36 5.36 2 9.5 2c3.71 0 6.836 2.734 7.383 6.328a4.364 4.364 0 0 0-3.633 4.297v.977A2.43 2.43 0 0 0 12 15.75v3.71a169 169 0 0 1-1.602 2.071M9.5 7c-.898 0-1.719.508-2.187 1.25-.43.781-.43 1.758 0 2.5A2.54 2.54 0 0 0 9.5 12c.86 0 1.68-.469 2.148-1.25.43-.742.43-1.719 0-2.5C11.18 7.508 10.36 7 9.5 7m8.125 4.375c-.703 0-1.25.586-1.25 1.25V14.5h2.5v-1.875c0-.664-.586-1.25-1.25-1.25m-3.125 1.25A3.11 3.11 0 0 1 17.625 9.5a3.134 3.134 0 0 1 3.125 3.125V14.5c.664 0 1.25.586 1.25 1.25v5c0 .703-.586 1.25-1.25 1.25H14.5c-.703 0-1.25-.547-1.25-1.25v-5c0-.664.547-1.25 1.25-1.25z"/>
  </mask>
  <g mask="url(#a)">
    <path d="M0 0h24v24H0z"/>
  </g>
</svg>
